svgs/sharp-light/file-powerpoint.svg

<svg xmlns="http://www.w3.org/2000/svg" viewBox="0 0 384 512"><!--! Font Awesome Pro 6.4.2 by @fontawesome - https://fontawesome.com License - https://fontawesome.com/license (Commercial License) Copyright 2023 Fonticons, Inc. --><path d="M352 480H32V32H192V176v16h16H352V480zM224 37.3L346.7 160H224V37.3zM232 0H32 0V32 480v32H32 352h32V480 152L232 0zM128 240H112v16V368v64 16h32V432 384h56c39.8 0 72-32.2 72-72s-32.2-72-72-72H128zm72 112H144V272h56c22.1 0 40 17.9 40 40s-17.9 40-40 40z"/></svg>

<svg xmlns="http://www.w3.org/2000/svg" viewBox="0 0 384 512"><!--! Font Awesome Pro 6.6.0 by @fontawesome - https://fontawesome.com License - https://fontawesome.com/license (Commercial License) Copyright 2024 Fonticons, Inc. --><path d="M352 480L32 480 32 32l160 0 0 144 0 16 16 0 144 0 0 288zM224 37.3L346.7 160 224 160l0-122.7zM232 0L32 0 0 0 0 32 0 480l0 32 32 0 320 0 32 0 0-32 0-328L232 0zM128 240l-16 0 0 16 0 112 0 64 0 16 32 0 0-16 0-48 56 0c39.8 0 72-32.2 72-72s-32.2-72-72-72l-72 0zm72 112l-56 0 0-80 56 0c22.1 0 40 17.9 40 40s-17.9 40-40 40z"/></svg>
